X:4463
T:Drunken Tinker, The
T:Yellow Tinker, The
R:reel
H:Also played in Gmix, #394. Related to #168, #452.
D:Kevin Burke: If the Cap Fits
Z:id:hn-reel-788
M:C|
K:Amix
EA~A2 EG~G2|EA~A2 eAdG|EAAG EDEF|G2BG DGBG:|
A2eA fAeA|~A2eA dBGB|A2eA fAec|d2BG DGBG|
A2eA fAeA|fAeA dBGB|edef gfge|d2BG DGBG||
